packages/clerk-js/src/v4/icons/pencil-edit.svg

<svg viewBox="0 0 14 14" fill="none" xmlns="http://www.w3.org/2000/svg">
<path d="M12.9315 1.0686C12.3066 0.443766 11.2936 0.443766 10.6687 1.0686L4.6001 7.13723V9.39998H6.86284L12.9315 3.33135C13.5563 2.70651 13.5563 1.69344 12.9315 1.0686Z" fill="currentColor"/>
<path fill-rule="evenodd" clip-rule="evenodd" d="M0.600098 3.79998C0.600098 2.91632 1.31644 2.19998 2.2001 2.19998H5.4001C5.84193 2.19998 6.2001 2.55815 6.2001 2.99998C6.2001 3.4418 5.84193 3.79998 5.4001 3.79998H2.2001V11.8H10.2001V8.59998C10.2001 8.15815 10.5583 7.79998 11.0001 7.79998C11.4419 7.79998 11.8001 8.15815 11.8001 8.59998V11.8C11.8001 12.6836 11.0838 13.4 10.2001 13.4H2.2001C1.31644 13.4 0.600098 12.6836 0.600098 11.8V3.79998Z" fill="currentColor"/>
</svg>

<svg viewBox="0 0 14 14" fill="none" xmlns="http://www.w3.org/2000/svg"><path d="M12.931 1.069a1.6 1.6 0 0 0-2.262 0L4.6 7.137V9.4h2.263l6.068-6.069a1.6 1.6 0 0 0 0-2.262Z" fill="currentColor"/><path fill-rule="evenodd" clip-rule="evenodd" d="M.6 3.8a1.6 1.6 0 0 1 1.6-1.6h3.2a.8.8 0 1 1 0 1.6H2.2v8h8V8.6a.8.8 0 0 1 1.6 0v3.2a1.6 1.6 0 0 1-1.6 1.6h-8a1.6 1.6 0 0 1-1.6-1.6v-8Z" fill="currentColor"/></svg>
